apps/scalable/retroarch.svg

<?xml version="1.0" encoding="UTF-8" standalone="no"?>
<svg
   height="48"
   width="48"
   version="1.1"
   id="svg8"
   sodipodi:docname="retroarch.svg"
   inkscape:version="1.1.2 (0a00cf5339, 2022-02-04)"
   xmlns:inkscape="http://www.inkscape.org/namespaces/inkscape"
   xmlns:sodipodi="http://sodipodi.sourceforge.net/DTD/sodipodi-0.dtd"
   xmlns="http://www.w3.org/2000/svg"
   xmlns:svg="http://www.w3.org/2000/svg"
   xmlns:rdf="http://www.w3.org/1999/02/22-rdf-syntax-ns#"
   xmlns:cc="http://creativecommons.org/ns#"
   xmlns:dc="http://purl.org/dc/elements/1.1/">
  <metadata
     id="metadata14">
    <rdf:RDF>
      <cc:Work
         rdf:about="">
        <dc:format>image/svg+xml</dc:format>
        <dc:type
           rdf:resource="http://purl.org/dc/dcmitype/StillImage" />
        <dc:title />
      </cc:Work>
    </rdf:RDF>
  </metadata>
  <defs
     id="defs12" />
  <sodipodi:namedview
     pagecolor="#ffffff"
     bordercolor="#666666"
     borderopacity="1"
     objecttolerance="10"
     gridtolerance="10"
     guidetolerance="10"
     inkscape:pageopacity="0"
     inkscape:pageshadow="2"
     inkscape:window-width="1920"
     inkscape:window-height="1031"
     id="namedview10"
     showgrid="false"
     inkscape:zoom="6.6880515"
     inkscape:cx="-13.456834"
     inkscape:cy="29.904076"
     inkscape:window-x="0"
     inkscape:window-y="0"
     inkscape:window-maximized="1"
     inkscape:current-layer="svg8"
     inkscape:document-rotation="0"
     inkscape:pagecheckerboard="0" />
  <path
     id="path2"
     style="fill:#81a1c1;fill-opacity:1;stroke-width:1.15035"
     d="M 23.804688 1.3046875 A 22.696228 22.696232 0 0 0 1.1074219 24 A 22.696228 22.696232 0 0 0 23.804688 46.695312 A 22.696228 22.696232 0 0 0 46.5 24 A 22.696228 22.696232 0 0 0 23.804688 1.3046875 z " />
  <path
     id="path1136"
     style="fill:#b48ead;fill-opacity:1;stroke-width:1.15035"
     d="M 1.1816406 25.832031 A 22.696228 22.696232 0 0 0 23.804688 46.695312 A 22.696228 22.696232 0 0 0 46.423828 25.845703 C 46.379938 25.841746 46.337923 25.832031 46.292969 25.832031 L 1.1816406 25.832031 z " />
  <path
     id="path1156"
     style="fill:#b48ead;fill-opacity:1;stroke-width:1.15035"
     d="M 23.804688 1.3046875 A 22.696228 22.696232 0 0 0 1.1074219 24 A 22.696228 22.696232 0 0 0 23.804688 46.695312 A 22.696228 22.696232 0 0 0 46.5 24 A 22.696228 22.696232 0 0 0 23.804688 1.3046875 z M 23.759766 3.2382812 A 20.762165 20.762169 0 0 1 23.804688 3.2382812 A 20.762165 20.762169 0 0 1 44.566406 24 A 20.762165 20.762169 0 0 1 23.804688 44.761719 A 20.762165 20.762169 0 0 1 3.0410156 24 A 20.762165 20.762169 0 0 1 23.759766 3.2382812 z " />
  <circle
     style="fill:#ffffff;fill-opacity:1;stroke-width:35;stroke-linecap:round;stroke-linejoin:round"
     id="path839"
     cx="8.7300787"
     cy="30.959213"
     r="2.8051097" />
  <circle
     style="fill:#ffffff;fill-opacity:1;stroke-width:35;stroke-linecap:round;stroke-linejoin:round"
     id="circle841"
     cx="16.088963"
     cy="37.135891"
     r="2.8051097" />
  <rect
     style="fill:#ffffff;fill-opacity:1;stroke-width:35;stroke-linecap:round;stroke-linejoin:round"
     id="rect843"
     width="4.7316813"
     height="11.902602"
     x="32.336079"
     y="28.066406"
     rx="0"
     ry="0" />
  <rect
     style="fill:#ffffff;fill-opacity:1;stroke-width:35;stroke-linecap:round;stroke-linejoin:round"
     id="rect845"
     width="4.7316813"
     height="11.902602"
     x="31.651867"
     y="-40.653221"
     rx="0"
     ry="0"
     transform="rotate(90)" />
  <path
     id="path16"
     style="fill:#ffffff;fill-opacity:1;stroke-width:0.706383;stroke:none"
     d="M 16.642578 7.2558594 C 16.49777 7.2558594 16.462891 7.378629 16.462891 7.5234375 L 16.462891 9.0996094 C 16.462891 9.2444174 16.49777 9.3535156 16.642578 9.3535156 L 18.230469 9.3535156 C 18.375278 9.3535156 18.489693 9.2405121 18.488281 9.0957031 C 18.484081 8.5715675 18.483222 8.0436671 18.482422 7.5195312 C 18.482422 7.3747229 18.365512 7.2558594 18.220703 7.2558594 L 16.642578 7.2558594 z M 29.384766 7.2558594 C 29.239958 7.2558594 29.044922 7.376676 29.044922 7.5214844 L 29.044922 9.1074219 C 29.044922 9.2522309 29.200895 9.3685995 29.345703 9.3671875 C 29.869839 9.3629875 30.376255 9.3639813 30.900391 9.3632812 C 31.0452 9.3632812 31.142578 9.2444184 31.142578 9.0996094 L 31.142578 7.5214844 C 31.142578 7.376676 31.105742 7.2558594 30.960938 7.2558594 L 29.384766 7.2558594 z M 18.804688 9.3632812 C 18.659173 9.3618812 18.560547 9.4782379 18.560547 9.6230469 L 18.560547 11.246094 C 18.560547 11.390903 18.373324 11.449219 18.228516 11.449219 L 16.621094 11.449219 C 16.476285 11.449219 16.464844 11.624723 16.464844 11.769531 L 16.464844 13.371094 C 16.464844 13.515903 16.239805 13.544922 16.095703 13.544922 L 14.492188 13.544922 C 14.34738 13.544922 14.105469 13.751675 14.105469 13.896484 L 14.105469 15.5 C 14.105469 15.644809 14.112896 15.642578 13.96875 15.642578 L 12.388672 15.642578 C 12.243864 15.642578 12.009766 15.878628 12.009766 16.023438 L 12.009766 21.835938 C 12.009766 21.980746 12.243864 22.195312 12.388672 22.195312 L 13.966797 22.195312 C 14.111605 22.195312 14.105469 21.980746 14.105469 21.835938 L 14.105469 18.136719 C 14.105469 17.991912 14.345426 18.001953 14.490234 18.001953 L 16.111328 18.001953 C 16.256137 18.001953 16.464844 17.992601 16.464844 18.136719 L 16.464844 21.859375 C 16.464844 22.004183 16.536122 22.121094 16.681641 22.121094 C 17.219198 22.121094 17.761519 22.122753 18.279297 22.126953 C 18.424106 22.128353 18.560547 22.011996 18.560547 21.867188 L 18.560547 20.269531 C 18.560547 20.124722 18.593473 20.097656 18.738281 20.097656 L 28.869141 20.097656 C 29.01395 20.097656 29.130859 20.169644 29.130859 20.314453 C 29.130859 20.852011 29.131153 21.396493 29.126953 21.919922 C 29.125553 22.064731 29.239958 22.195313 29.384766 22.195312 L 30.980469 22.195312 C 31.124572 22.195312 31.140625 22.004183 31.140625 21.859375 L 31.140625 18.140625 C 31.140625 17.995816 31.361051 18.001953 31.505859 18.001953 L 33.134766 18.001953 C 33.279575 18.001953 33.501953 17.995768 33.501953 18.140625 L 33.501953 21.835938 C 33.501953 21.980746 33.515349 22.195313 33.660156 22.195312 L 35.21875 22.195312 C 35.363558 22.195312 35.597656 21.980745 35.597656 21.835938 L 35.597656 16.013672 C 35.597656 15.868863 35.363558 15.642578 35.21875 15.642578 L 33.625 15.642578 C 33.480193 15.642578 33.238281 15.635019 33.238281 15.490234 L 33.238281 13.880859 C 33.238281 13.73605 33.240013 13.544922 33.101562 13.544922 L 31.5 13.544922 C 31.355191 13.544922 31.142578 13.502233 31.142578 13.357422 L 31.142578 11.755859 C 31.142578 11.611051 31.120666 11.449219 30.976562 11.449219 L 29.380859 11.449219 C 29.236051 11.449219 29.044922 11.375272 29.044922 11.230469 L 29.044922 9.6230469 C 29.044922 9.4782379 28.964415 9.3618683 28.820312 9.3632812 C 28.29759 9.3674813 27.760005 9.3691406 27.216797 9.3691406 C 27.071989 9.3691406 26.949219 9.4860514 26.949219 9.6308594 L 26.949219 11.224609 C 26.949219 11.370124 26.88309 11.449219 26.738281 11.449219 L 20.857422 11.449219 C 20.712614 11.449219 20.658203 11.368708 20.658203 11.224609 L 20.658203 9.6289062 C 20.658203 9.4840972 20.510042 9.3671875 20.365234 9.3671875 C 19.827676 9.3671875 19.324419 9.3674813 18.806641 9.3632812 L 18.804688 9.3632812 z M 18.75 13.544922 L 20.349609 13.544922 C 20.494417 13.544922 20.660156 13.733391 20.660156 13.878906 L 20.660156 15.476562 C 20.660156 15.62137 20.494417 15.642578 20.349609 15.642578 L 18.75 15.642578 C 18.605191 15.642578 18.5625 15.620665 18.5625 15.476562 L 18.5625 13.878906 C 18.5625 13.734097 18.604492 13.544922 18.75 13.544922 z M 27.261719 13.544922 L 28.859375 13.544922 C 29.004184 13.544922 29.048828 13.738005 29.048828 13.882812 L 29.048828 15.480469 C 29.048828 15.625278 29.004176 15.642578 28.859375 15.642578 L 27.261719 15.642578 C 27.116911 15.642578 26.951172 15.625981 26.951172 15.480469 L 26.951172 13.882812 C 26.951172 13.73871 27.117617 13.544922 27.261719 13.544922 z M 18.75 22.128906 C 18.605191 22.128835 18.486868 22.245818 18.488281 22.390625 C 18.492481 22.914761 18.490234 23.471958 18.490234 23.996094 C 18.490234 24.140903 18.607144 24.291016 18.751953 24.291016 L 22.458984 24.291016 C 22.603793 24.291016 22.759766 24.109652 22.759766 23.964844 L 22.759766 22.402344 C 22.759766 22.257535 22.622618 22.139918 22.478516 22.140625 C 22.084355 22.140625 21.686632 22.140072 21.298828 22.138672 C 20.450462 22.135872 19.597659 22.132406 18.75 22.128906 z M 28.966797 22.132812 C 28.925827 22.135613 28.902293 22.166016 28.861328 22.166016 C 27.61315 22.166087 26.38685 22.193359 25.138672 22.193359 L 25.019531 22.193359 C 24.953841 22.193359 24.857422 22.255591 24.857422 22.400391 L 24.857422 23.96875 C 24.857422 24.113559 25.018548 24.291016 25.164062 24.291016 L 28.867188 24.291016 C 29.011996 24.291016 29.050781 24.113559 29.050781 23.96875 L 29.050781 22.380859 C 29.050781 22.23605 29.035317 22.127868 28.966797 22.132812 z " />
</svg>

<?xml version="1.0" encoding="UTF-8" standalone="no"?>
<svg
   xmlns:dc="http://purl.org/dc/elements/1.1/"
   xmlns:cc="http://creativecommons.org/ns#"
   xmlns:rdf="http://www.w3.org/1999/02/22-rdf-syntax-ns#"
   xmlns:svg="http://www.w3.org/2000/svg"
   xmlns="http://www.w3.org/2000/svg"
   xmlns:sodipodi="http://sodipodi.sourceforge.net/DTD/sodipodi-0.dtd"
   xmlns:inkscape="http://www.inkscape.org/namespaces/inkscape"
   height="48"
   width="48"
   version="1.1"
   id="svg8"
   sodipodi:docname="retroarch.svg"
   inkscape:version="1.0.2 (e86c870879, 2021-01-15)">
  <metadata
     id="metadata14">
    <rdf:RDF>
      <cc:Work
         rdf:about="">
        <dc:format>image/svg+xml</dc:format>
        <dc:type
           rdf:resource="http://purl.org/dc/dcmitype/StillImage" />
        <dc:title />
      </cc:Work>
    </rdf:RDF>
  </metadata>
  <defs
     id="defs12" />
  <sodipodi:namedview
     pagecolor="#ffffff"
     bordercolor="#666666"
     borderopacity="1"
     objecttolerance="10"
     gridtolerance="10"
     guidetolerance="10"
     inkscape:pageopacity="0"
     inkscape:pageshadow="2"
     inkscape:window-width="1920"
     inkscape:window-height="1028"
     id="namedview10"
     showgrid="false"
     inkscape:zoom="6.6880515"
     inkscape:cx="16.416699"
     inkscape:cy="29.829664"
     inkscape:window-x="0"
     inkscape:window-y="24"
     inkscape:window-maximized="1"
     inkscape:current-layer="svg8"
     inkscape:document-rotation="0" />
  <path
     id="path2"
     style="fill:#81a1c1;fill-opacity:1;stroke-width:1.15035"
     d="M 23.804688 1.3046875 A 22.696228 22.696232 0 0 0 1.1074219 24 A 22.696228 22.696232 0 0 0 23.804688 46.695312 A 22.696228 22.696232 0 0 0 46.5 24 A 22.696228 22.696232 0 0 0 23.804688 1.3046875 z " />
  <path
     id="path1136"
     style="fill:#b48ead;fill-opacity:1;stroke-width:1.15035"
     d="M 1.1816406 25.832031 A 22.696228 22.696232 0 0 0 23.804688 46.695312 A 22.696228 22.696232 0 0 0 46.423828 25.845703 C 46.379938 25.841746 46.337923 25.832031 46.292969 25.832031 L 1.1816406 25.832031 z " />
  <path
     id="path1156"
     style="fill:#b48ead;fill-opacity:1;stroke-width:1.15035"
     d="M 23.804688 1.3046875 A 22.696228 22.696232 0 0 0 1.1074219 24 A 22.696228 22.696232 0 0 0 23.804688 46.695312 A 22.696228 22.696232 0 0 0 46.5 24 A 22.696228 22.696232 0 0 0 23.804688 1.3046875 z M 23.759766 3.2382812 A 20.762165 20.762169 0 0 1 23.804688 3.2382812 A 20.762165 20.762169 0 0 1 44.566406 24 A 20.762165 20.762169 0 0 1 23.804688 44.761719 A 20.762165 20.762169 0 0 1 3.0410156 24 A 20.762165 20.762169 0 0 1 23.759766 3.2382812 z " />
  <circle
     style="fill:#ffffff;fill-opacity:1;stroke-width:35;stroke-linecap:round;stroke-linejoin:round"
     id="path839"
     cx="8.7300787"
     cy="30.959213"
     r="2.8051097" />
  <circle
     style="fill:#ffffff;fill-opacity:1;stroke-width:35;stroke-linecap:round;stroke-linejoin:round"
     id="circle841"
     cx="16.088963"
     cy="37.135891"
     r="2.8051097" />
  <rect
     style="fill:#ffffff;fill-opacity:1;stroke-width:35;stroke-linecap:round;stroke-linejoin:round"
     id="rect843"
     width="4.7316813"
     height="11.902602"
     x="32.336079"
     y="28.066406"
     rx="0"
     ry="0" />
  <rect
     style="fill:#ffffff;fill-opacity:1;stroke-width:35;stroke-linecap:round;stroke-linejoin:round"
     id="rect845"
     width="4.7316813"
     height="11.902602"
     x="31.651867"
     y="-40.653221"
     rx="0"
     ry="0"
     transform="rotate(90)" />
  <path
     d="m 16.641739,7.256161 c -0.144808,0 -0.178008,0.1229105 -0.178008,0.267719 v 1.5752335 c 0,0.144808 0.0332,0.253591 0.178008,0.253591 h 1.587948 c 0.144809,0 0.260655,-0.113021 0.259243,-0.25783 -0.0042,-0.5241356 -0.0049,-1.051097 -0.0057,-1.5752329 0,-0.1448083 -0.117259,-0.2634806 -0.262068,-0.2634806 H 16.64169 m 12.743142,0 c -0.144808,0 -0.340476,0.120085 -0.340476,0.2648934 v 1.5865351 c 0,0.144809 0.156111,0.260655 0.300919,0.259243 0.524136,-0.0042 1.030612,-0.0035 1.554748,-0.0042 0.144809,0 0.241583,-0.118672 0.241583,-0.263481 V 7.5210544 c 0,-0.1448084 -0.03603,-0.2648934 -0.180834,-0.2648934 H 29.385587 M 18.804683,9.3640065 c -0.145515,-0.0014 -0.244409,0.114434 -0.244409,0.259243 v 1.6225595 c 0,0.144809 -0.186485,0.204145 -0.331293,0.204145 h -1.608433 c -0.144809,0 -0.156111,0.175183 -0.156111,0.319991 v 1.602076 c 0,0.144809 -0.223923,0.17377 -0.368025,0.17377 h -1.604195 c -0.144808,0 -0.386391,0.205557 -0.386391,0.350366 v 1.604194 c 0,0.144809 0.0064,0.141983 -0.137746,0.141983 h -1.579471 c -0.144808,0 -0.379327,0.235932 -0.379327,0.380741 v 5.812822 c 0,0.144808 0.234519,0.358843 0.379327,0.358843 h 1.578059 c 0.144808,0 0.139158,-0.214035 0.139158,-0.358843 v -3.69862 c 0,-0.144807 0.24017,-0.134918 0.384978,-0.134918 h 1.621148 c 0.144809,0 0.353192,-0.0092 0.353192,0.134918 v 3.722637 c 0,0.144808 0.07134,0.262068 0.216859,0.262068 0.537557,0 1.080059,0 1.597837,0.0042 0.144809,0.0014 0.281141,-0.114433 0.281141,-0.259242 v -1.597837 c 0,-0.144809 0.0332,-0.170945 0.178008,-0.170945 h 10.129526 c 0.144809,0 0.262068,0.07205 0.262068,0.216859 0,0.537558 0,1.080766 -0.0042,1.604195 -0.0014,0.144809 0.114434,0.276195 0.259242,0.276195 h 1.595012 c 0.144103,0 0.160349,-0.192136 0.160349,-0.336944 v -3.716985 c 0,-0.144809 0.219685,-0.139157 0.364493,-0.139157 h 1.629625 c 0.144809,0 0.365906,-0.0057 0.365906,0.139157 v 3.694381 c 0,0.144808 0.01413,0.358843 0.158937,0.358843 h 1.558986 c 0.144808,0 0.379327,-0.214035 0.379327,-0.358843 v -5.822005 c 0,-0.144809 -0.234519,-0.370851 -0.379327,-0.370851 h -1.5936 c -0.144807,0 -0.386391,-0.0085 -0.386391,-0.153285 v -1.608395 c 0,-0.144809 7.07e-4,-0.335532 -0.137744,-0.335532 h -1.600663 c -0.144809,0 -0.358843,-0.0445 -0.358843,-0.189311 v -1.600663 c 0,-0.144808 -0.02119,-0.306569 -0.165293,-0.306569 h -1.596425 c -0.144808,0 -0.334118,-0.07347 -0.334118,-0.218273 V 9.6239555 c 0,-0.144809 -0.08194,-0.262068 -0.226043,-0.260655 -0.522723,0.0042 -1.058868,0.0057 -1.602076,0.0057 -0.144808,0 -0.269131,0.11726 -0.269131,0.262068 v 1.5935995 c 0,0.145515 -0.0664,0.224629 -0.211209,0.224629 h -5.879929 c -0.144808,0 -0.198493,-0.08053 -0.198493,-0.224629 V 9.6296555 c 0,-0.144809 -0.149047,-0.262068 -0.293855,-0.262068 -0.537558,0 -1.041208,0 -1.558986,-0.0042 m -0.05651,4.1817845 h 1.600663 c 0.144808,0 0.309395,0.188604 0.309395,0.334119 0,0.532612 0,1.060986 0,1.597837 0,0.144808 -0.164587,0.165293 -0.309395,0.165293 h -1.60066 c -0.144809,0 -0.187898,-0.02119 -0.187898,-0.165293 v -1.597837 c 0,-0.144809 0.04239,-0.334119 0.187898,-0.334119 m 8.51191,0 h 1.597837 c 0.144809,0 0.189311,0.192136 0.189311,0.336944 v 1.59925 c 0,0.144809 -0.04451,0.161762 -0.189311,0.161762 h -1.597837 c -0.144808,0 -0.310102,-0.01625 -0.310102,-0.161762 v -1.59925 c 0,-0.144102 0.166,-0.336944 0.310102,-0.336944 m -8.51191,8.583961 c -0.144809,-7.1e-5 -0.263481,0.11726 -0.262068,0.262067 0.0042,0.524136 0.0028,1.081472 0.0028,1.605608 0,0.144809 0.115847,0.293855 0.260656,0.293855 h 3.707095 c 0.144809,0 0.302332,-0.180834 0.302332,-0.325642 v -1.563224 c 0,-0.144809 -0.137038,-0.262775 -0.28114,-0.262068 -0.394161,0 -0.793268,0 -1.181072,-0.0014 -0.848366,-0.0028 -1.700263,-0.0064 -2.547922,-0.0099 m 10.216412,0.0042 c -0.04097,0.0028 -0.06358,0.0332 -0.104545,0.0332 -1.248178,7.1e-5 -2.474458,0.02755 -3.722636,0.02755 h -0.120085 c -0.06569,0 -0.161762,0.06217 -0.161762,0.20697 v 1.568875 c 0,0.144809 0.161055,0.321404 0.30657,0.321404 h 3.702857 c 0.144809,0 0.18366,-0.176595 0.18366,-0.321404 v -1.587948 c 0,-0.144809 -0.01554,-0.253591 -0.08406,-0.248647"
     fill="url(#1)"
     id="path16"
     style="fill:#ffffff;fill-opacity:0.682954;stroke-width:0.706383" />
</svg>
